!!!COM: Władysław z Gielniowa
!!!CDT: ~1440–1550
!!!ODT:
!!!LYR:
!!!OTL: Pieśn o Bożym vmęczeniu nabożna
!!!PPR: Siebeneicher Mateusz
!!!PDT: 1558
!!!PPP: Kraków
!!!ENC: dr Marcin Konik
!!!END: 2015-03-13
!!!YOO: Polish National Library, BN-SD-XVI-O-253
!!!RDF**kern: i=editorial accidental
!!title: @{CDT}, @{OTL}, ed. @{ENC}
!!!YEM: Creative Commons CC/BY/NC/SA 4.0
!!!EED: Marcin Konik
!!!ONB: Encoded in vim by Marcin Konik
!!!CharacterEncoding: utf-8
!!!RDF**kern: l=long note in original notation
!!!RDF**kern: i=editorial accidental
!!muse2ps: z14jc180F
**kern	**kern	**kern	**kern
*part4	*part3	*part2	*part1
*staff4	*staff3	*staff2	*staff1
*I"Bas	*I"Tenor	*I"Alt	*I"Cantus
*clefF4	*clefGv2	*clefG2	*clefG2
*oclefF4	*oclefC4	*oclefC3	*oclefC1
*k[b-]	*k[b-]	*k[b-]	*k[b-]
*M2/2	*M2/2	*M2/2	*M2/2
=1-	=1-	=1-	=1-
1G	1G	1d	1g
=2	=2	=2	=2
1G	1G	1d	1g
=3	=3	=3	=3
1D	1F	1f	1a
=4	=4	=4	=4
1D	1F	1f	1a
=5	=5	=5	=5
1G	1G	1d	1b-
=6	=6	=6	=6
1G	1G	1e	1b-
=7	=7	=7	=7
[1F	[1A	[1f	[1a
=8	=8	=8	=8
1F]	1A]	1f]	2a]
.	.	.	2b-
=9	=9	=9	=9
1F	1A	1f	1cc
=10	=10	=10	=10
1G	1d	1B-	1b-
=11	=11	=11	=11
2A	1c	1c	1a
2F	.	.	.
=12	=12	=12	=12
1G	1B-	1d	[1g
=13	=13	=13	=13
[1D	[1A	[1d	1g]
=14	=14	=14	=14
1D]	1A]	1d]	1f#
=15	=15	=15	=15
[1GG	[1G	[1B-	[1g
=16	=16	=16	=16
1GG]	1G]	2B-]	1g]
.	.	2c	.
=17	=17	=17	=17
1D	1F	1d	1a
=18	=18	=18	=18
1D	1F	1d	1a
=19	=19	=19	=19
1G	1G	1d	1b-
=20	=20	=20	=20
1E	1G	1c	1g
=21	=21	=21	=21
1D	1A	1d	1f
=22	=22	=22	=22
1D	1A	1d	1f
=23	=23	=23	=23
[1G	1G	[1B-	[1d
=24	=24	=24	=24
1G]	1B-	2B-]	2d]
.	.	2c	2e
=25	=25	=25	=25
1D	1A	1d	1f
=26	=26	=26	=26
2E	1G	1c	1e
2C	.	.	.
=27	=27	=27	=27
1D	1F	1A	1d
=28	=28	=28	=28
1AA	1E	1A	1c
=29	=29	=29	=29
[1A	[1D	1F	[1d
=30	=30	=30	=30
2A]	1D]	[1f	2d]
2G	.	.	2e
=31	=31	=31	=31
1A	[1D	2f]	2f
.	.	2e	2g
=32	=32	=32	=32
1F	1D]	1d	1a
=33	=33	=33	=33
1F	1A	1c	1cc
=34	=34	=34	=34
1F	1A	1c	1a
=35	=35	=35	=35
1D	1d	1f	1a
=36	=36	=36	=36
1G	1d	1g	1b-
=37	=37	=37	=37
2A	1c	2e	1a
2F	.	2f	.
=38	=38	=38	=38
1G	1B-	1d	1g
=39	=39	=39	=39
[1D	[1A	[1d	[1a
=40	=40	=40	=40
1D]	1A]	1d]	1a]
=41	=41	=41	=41
1GG	1G	1d	1b-
=42	=42	=42	=42
1AA	1F	1c	1a
=43	=43	=43	=43
1GG	1G	1B-	1b-
=44	=44	=44	=44
1GG	1B-	1d	[1g
=45	=45	=45	=45
[1D	[1A	1d	1g]
=46	=46	=46	=46
1D]	1A]	[1d	1f
=47	=47	=47	=47
[1E	[1G	1d]	[1g
=48	=48	=48	=48
1E]	1G]	2c	1g]
.	.	2B-	.
=49	=49	=49	=49
1F	1D	1A	1a
=50	=50	=50	=50
1F	1D	1d	1a
=51	=51	=51	=51
1D	1A	1d	1f
=52	=52	=52	=52
2E	1G	2B-	1e
2C	.	2c	.
=53	=53	=53	=53
1D	1F	2A	1f
.	.	2B-	.
=54	=54	=54	=54
1C	1E	1c	1g
=55	=55	=55	=55
[1D	[1D	1A	[1f
=56	=56	=56	=56
2D]	1D]	1d	1f]
2BB-	.	.	.
=57	=57	=57	=57
1C	1G	1e	1g
=58	=58	=58	=58
1AA	1F	1c	1a
=59	=59	=59	=59
1GG	1G	1d	[1b-
=60	=60	=60	=60
1G	1G	[1d	2b-]
.	.	.	2g
=61	=61	=61	=61
[1D	[1d	2d]	1b-
.	.	2e	.
=62	=62	=62	=62
2D]	1d]	1f	[1a
2E	.	.	.
=63	=63	=63	=63
1F	1c	1f	1a]
=64	=64	=64	=64
1G	1B-	1d	[1g
=65	=65	=65	=65
[1D	[1A	[1d	1g]
=66	=66	=66	=66
1D]	1A]	1d]	1f#
=67	=67	=67	=67
[1GG	[1G	[1d	[1g
=68	=68	=68	=68
1GG_	1G_	1d_	1g_
=69	=69	=69	=69
1GG_	1G_	1d_	1g_
=70	=70	=70	=70
1GG]	1G]	1d]	1g]
==	==	==	==
*-	*-	*-	*-
